!!! OTL: Berkowitz346
!!! Chapter: 1
!!! Section: III
!!! Page: 84
!!! Mode: 
!!! Encoder: DJB
**kern
*staff1
*I"Piano
=1-
*clefC3
*k[f#]
*e:
*M3/4
4r
8r
8B/
8e\L
8f#\J
=2
4.a\
8g\
8f#\L
8e\J
=3
4d#\
8r
8B/
8f#\L
8g\J
=4
4.b\
8a\
8g\L
8f#\J
=5
4g\
8r
8e\
8g\L
8b\J
=6
4.cc\
8b\
8a\L
8g\J
=7
8f#\L
8e\J
8d\L
8d\J
8f#\L
8a\J
=8
!!linebreak:original
4.dd\
8cc\
8b\L
8a#\J
=9
4b\
8r
8B/
8c\L
8e\J
=10
4.a\
8g\
8f#\L
8e\J
=11
8d#\L
8e\J
8f#\L
8g\J
8a\L
8b\J
=12
8dd\L
8cc\J
8b\L
8a\J
8cc\L
8b\J
=13
8a\L
8g\J
8b\L
8a\J
8g\L
8f#\J
=14
2e\
4d#\
=15
!!linebreak:original
4r
8r
8B/
8f#\L
8g\J
=16
4e\
2r
==
*-
